docs/photo-retouch/KD-Punch-Hotdog-v1.xmp
<x:xmpmeta xmlns:x="adobe:ns:meta/" x:xmptk="Adobe XMP Core">
 <rdf:RDF xmlns:rdf="http://www.w3.org/1999/02/22-rdf-syntax-ns#">
  <rdf:Description rdf:about=""
    xmlns:crs="http://ns.adobe.com/camera-raw-settings/1.0/"
    crs:Version="15.0"
    crs:ProcessVersion="11.0"
    crs:WhiteBalance="Custom"
    crs:Temperature="5400"
    crs:Tint="+3"
    crs:Exposure2012="+0.15"
    crs:Contrast2012="+22"
    crs:Highlights2012="-15"
    crs:Shadows2012="+10"
    crs:Whites2012="+12"
    crs:Blacks2012="-12"
    crs:Texture="+20"
    crs:Clarity2012="+12"
    crs:Dehaze="+3"
    crs:Vibrance="+15"
    crs:Saturation="+6"
    crs:Sharpness="50"
    crs:SharpenRadius="1.0"
    crs:SharpenDetail="35"
    crs:SharpenEdgeMasking="50"
    crs:HueAdjustmentRed="-3"
    crs:SaturationAdjustmentRed="+25"
    crs:LuminanceAdjustmentRed="-3"
    crs:HueAdjustmentOrange="-2"
    crs:SaturationAdjustmentOrange="+14"
    crs:LuminanceAdjustmentOrange="+8"
    crs:HueAdjustmentYellow="+3"
    crs:SaturationAdjustmentYellow="+20"
    crs:LuminanceAdjustmentYellow="+3"
    crs:HueAdjustmentGreen="-3"
    crs:SaturationAdjustmentGreen="+22"
    crs:LuminanceAdjustmentGreen="-3"
    crs:ShadowTint="+2"
    crs:RedSaturation="+10"
    crs:GreenSaturation="+6"
    crs:BlueSaturation="-2"
    crs:HasSettings="True"
    crs:AlreadyApplied="False"
    crs:Name="KD Punch Hotdog v1"
    crs:PresetType="Normal">
  </rdf:Description>
 </rdf:RDF>
</x:xmpmeta>
